style-guide/assets/xd-icons-grid-tiny.svg

<?xml version="1.0" encoding="UTF-8"?>
<svg width="12px" height="12px" viewBox="0 0 12 12" version="1.1" xmlns="http://www.w3.org/2000/svg" xmlns:xlink="http://www.w3.org/1999/xlink">
    <!-- Generator: Sketch 51.3 (57544) - http://www.bohemiancoding.com/sketch -->
    <title>bento</title>
    <desc>Created with Sketch.</desc>
    <defs></defs>
    <g id="bento" stroke="none" stroke-width="1" fill="none" fill-rule="evenodd">
        <path d="M8,3.98969329 L11,3.98969329 L11,0.997423323 L8,0.997423323 L8,3.98969329 Z M7,4.48840495 L7,0.498711662 C7,0.223280816 7.22385763,0 7.5,0 L11.5,0 C11.7761424,0 12,0.223280816 12,0.498711662 L12,4.48840495 C12,4.7638358 11.7761424,4.98711662 11.5,4.98711662 L7.5,4.98711662 C7.22385763,4.98711662 7,4.7638358 7,4.48840495 Z M1,11.0025767 L4,11.0025767 L4,8.01030671 L1,8.01030671 L1,11.0025767 Z M0,11.5012883 L0,7.51159505 C0,7.2361642 0.223857625,7.01288338 0.5,7.01288338 L4.5,7.01288338 C4.77614237,7.01288338 5,7.2361642 5,7.51159505 L5,11.5012883 C5,11.7767192 4.77614237,12 4.5,12 L0.5,12 C0.223857625,12 0,11.7767192 0,11.5012883 Z M8,11.0025767 L11,11.0025767 L11,8.01030671 L8,8.01030671 L8,11.0025767 Z M7,11.5012883 L7,7.51159505 C7,7.2361642 7.22385763,7.01288338 7.5,7.01288338 L11.5,7.01288338 C11.7761424,7.01288338 12,7.2361642 12,7.51159505 L12,11.5012883 C12,11.7767192 11.7761424,12 11.5,12 L7.5,12 C7.22385763,12 7,11.7767192 7,11.5012883 Z M1,3.98969329 L4,3.98969329 L4,0.997423323 L1,0.997423323 L1,3.98969329 Z M0,4.48840495 L0,0.498711662 C0,0.223280816 0.223857625,0 0.5,0 L4.5,0 C4.77614237,0 5,0.223280816 5,0.498711662 L5,4.48840495 C5,4.7638358 4.77614237,4.98711662 4.5,4.98711662 L0.5,4.98711662 C0.223857625,4.98711662 0,4.7638358 0,4.48840495 Z" id="Stroke-5" fill="#000000" fill-rule="nonzero"></path>
    </g>
</svg>

<svg viewBox="0 0 12 12" xmlns="http://www.w3.org/2000/svg">
  <path d="M8 3.99h3V.997H8V3.99zm-1 .498V.498A.5.5 0 0 1 7.5 0h4a.5.5 0 0 1 .5.499v3.99a.5.5 0 0 1-.5.498h-4a.5.5 0 0 1-.5-.499zm-6 6.515h3V8.01H1v2.993zM0 11.5v-3.99a.5.5 0 0 1 .5-.498h4a.5.5 0 0 1 .5.499v3.99a.5.5 0 0 1-.5.498h-4a.5.5 0 0 1-.5-.499zm8-.498h3V8.01H8v2.993zM7 11.5v-3.99a.5.5 0 0 1 .5-.498h4a.5.5 0 0 1 .5.499v3.99a.5.5 0 0 1-.5.498h-4a.5.5 0 0 1-.5-.499zM1 3.99h3V.997H1V3.99zm-1 .498V.498A.5.5 0 0 1 .5 0h4a.5.5 0 0 1 .5.499v3.99a.5.5 0 0 1-.5.498h-4a.5.5 0 0 1-.5-.499z" fill="#000" fill-rule="nonzero"/>
</svg>
